!!!Genre:	Freylekhs
!!!Mode:	Major
!!!Edition:	2015
!!!Listening/dance:	dance
!!!Free rhythm?:	No
!!!Secondary Modes:	All major
!!!One_Mode:	yes
**kern
*I"P1
*clefG2
*k[f#]
*G:
*M2/4
*>A
=1
8gL
16bL
16ccJJ
8ddL
8ddJ
=2
(16ddLL
16ccJJ)
((8qdd/
16cc)
16bJJ)
8ddL
8ddJ
=3
8gL
16bL
16ccJJ
8ddL
8ddJ
=4
(16ddLL
16cc)
(16cc
16bJJ)
4dd
=5:|!|:
*>B
8.ccL
16bJk
8.ccL
16bJk
=6
16ddLL
16cc
16b
16aJJ
8bL
8gJ
=7
8aL
8aJ
16aLL
16cc
16b
16aJJ
=8
8gL
8bJ
4dd
=9:|!
4g
4g
=10!|:
*>C
8cc
(8qdd/
16ccL)
16bJJ
8cc
(8qdd/
16ccL)
16bJJ
=11
8aL
8aJ
4a
=12
16b
(8qdd/
16cc)
16b
16aJJ
16b
(8qdd/
16cc)
16b
16aJJ
=13
8gL
8bJ
4dd
=14:|!
4g
4G
==
*-
